X:814
T:Splendid Isolation
T:Brendan McGlinchey's
R:reel
C:Brendan McGlinchey
Z:id:hn-reel-814
M:C|
L:1/8
K:Gdor
FGGF GdcA|G2AG FGAc|dAcA GABc|dggf ~g3a|
bgag fd~d2|f2eg fdcA|G2AG FGAc|dAcA ~G3z:|
|:g2ag fd~d2|gfdc Acdc|AG~G2 Acdc|AG~G2 F4|
FGGF GdcA|G2AG FGAc|dg~g2 fgag|fdcA G4:|
P:variations
FGAF GdcA|G2AG FGAc|dAcA GABc|dg (3fga ~g3a|
b2ag fd~d2|fefg fdcA|G2AG FGAc|dAcA G2DE|
FGAF GdcA|G2AG FGAc|dAcA GABc|dggd ^fgga|
bggf gfde|~f3g fdcA|GcAG FGAc|dAcA G4||
|:gfag fd~d2|gfdc Acdc|AG~G2 Acdc|AG~G2 F2~F2|
FGAF GdcA|GcAG FGAc|dg~g2 fgag|fdcA G4:|

